svg/aws-ec2-g4dn.svg

<?xml version="1.0" encoding="UTF-8"?>
<svg xmlns="http://www.w3.org/2000/svg" xmlns:xlink="http://www.w3.org/1999/xlink" width="32" height="32" viewBox="0 0 32 32">
<path fill-rule="evenodd" fill="rgb(83.137255%, 35.686275%, 2.745098%)" fill-opacity="1" d="M 6 26 L 26 26 L 26 6 L 6 6 Z M 30.667969 8.667969 L 30.667969 7.332031 L 27.332031 7.332031 L 27.332031 5.332031 C 27.332031 4.964844 27.035156 4.667969 26.667969 4.667969 L 24.667969 4.667969 L 24.667969 1.332031 L 23.332031 1.332031 L 23.332031 4.667969 L 20.667969 4.667969 L 20.667969 1.332031 L 19.332031 1.332031 L 19.332031 4.667969 L 16.667969 4.667969 L 16.667969 1.332031 L 15.332031 1.332031 L 15.332031 4.667969 L 12.667969 4.667969 L 12.667969 1.332031 L 11.332031 1.332031 L 11.332031 4.667969 L 8.667969 4.667969 L 8.667969 1.332031 L 7.332031 1.332031 L 7.332031 4.667969 L 5.332031 4.667969 C 4.964844 4.667969 4.667969 4.964844 4.667969 5.332031 L 4.667969 7.332031 L 1.332031 7.332031 L 1.332031 8.667969 L 4.667969 8.667969 L 4.667969 11.332031 L 1.332031 11.332031 L 1.332031 12.667969 L 4.667969 12.667969 L 4.667969 15.332031 L 1.332031 15.332031 L 1.332031 16.667969 L 4.667969 16.667969 L 4.667969 19.332031 L 1.332031 19.332031 L 1.332031 20.667969 L 4.667969 20.667969 L 4.667969 23.332031 L 1.332031 23.332031 L 1.332031 24.667969 L 4.667969 24.667969 L 4.667969 26.667969 C 4.667969 27.035156 4.964844 27.332031 5.332031 27.332031 L 7.332031 27.332031 L 7.332031 30.667969 L 8.667969 30.667969 L 8.667969 27.332031 L 11.332031 27.332031 L 11.332031 30.667969 L 12.667969 30.667969 L 12.667969 27.332031 L 15.332031 27.332031 L 15.332031 30.667969 L 16.667969 30.667969 L 16.667969 27.332031 L 19.332031 27.332031 L 19.332031 30.667969 L 20.667969 30.667969 L 20.667969 27.332031 L 23.332031 27.332031 L 23.332031 30.667969 L 24.667969 30.667969 L 24.667969 27.332031 L 26.667969 27.332031 C 27.035156 27.332031 27.332031 27.035156 27.332031 26.667969 L 27.332031 24.667969 L 30.667969 24.667969 L 30.667969 23.332031 L 27.332031 23.332031 L 27.332031 20.667969 L 30.667969 20.667969 L 30.667969 19.332031 L 27.332031 19.332031 L 27.332031 16.667969 L 30.667969 16.667969 L 30.667969 15.332031 L 27.332031 15.332031 L 27.332031 12.667969 L 30.667969 12.667969 L 30.667969 11.332031 L 27.332031 11.332031 L 27.332031 8.667969 Z M 23.972656 18.484375 L 23.972656 15.789062 C 23.972656 15.527344 23.917969 15.339844 23.8125 15.21875 C 23.707031 15.101562 23.535156 15.039062 23.300781 15.039062 C 22.949219 15.039062 22.589844 15.15625 22.21875 15.390625 L 22.21875 18.484375 L 21.277344 18.484375 L 21.277344 14.414062 L 22.058594 14.414062 L 22.15625 14.863281 C 22.65625 14.484375 23.179688 14.292969 23.722656 14.292969 C 24.113281 14.296875 24.410156 14.398438 24.613281 14.601562 C 24.816406 14.808594 24.917969 15.105469 24.917969 15.492188 L 24.917969 18.484375 Z M 18.5 17.828125 C 18.816406 17.828125 19.121094 17.730469 19.421875 17.527344 L 19.421875 15.324219 C 19.15625 15.136719 18.839844 15.035156 18.515625 15.039062 C 18.160156 15.039062 17.894531 15.152344 17.726562 15.378906 C 17.558594 15.605469 17.476562 15.953125 17.476562 16.421875 C 17.476562 17.359375 17.816406 17.828125 18.5 17.828125 M 19.554688 18.484375 L 19.460938 18.09375 C 19.097656 18.414062 18.679688 18.574219 18.203125 18.574219 C 17.691406 18.574219 17.28125 18.382812 16.976562 18.003906 C 16.667969 17.621094 16.515625 17.105469 16.515625 16.460938 C 16.515625 16.035156 16.585938 15.660156 16.722656 15.335938 C 16.863281 15.007812 17.0625 14.753906 17.324219 14.570312 C 17.597656 14.382812 17.921875 14.285156 18.253906 14.292969 C 18.679688 14.292969 19.066406 14.433594 19.421875 14.710938 L 19.421875 12.566406 L 20.363281 12.566406 L 20.363281 18.484375 Z M 14.539062 16.582031 L 14.539062 14.140625 L 12.867188 16.582031 Z M 14.539062 18.484375 L 14.539062 17.335938 L 11.917969 17.335938 L 11.917969 16.621094 L 14.5 12.941406 L 15.492188 12.941406 L 15.492188 16.582031 L 16.234375 16.582031 L 16.234375 17.335938 L 15.492188 17.335938 L 15.492188 18.484375 Z M 9.714844 17.757812 C 9.972656 17.757812 10.222656 17.734375 10.46875 17.6875 L 10.46875 16.222656 L 9.324219 16.222656 L 9.324219 15.453125 L 11.445312 15.453125 L 11.445312 18.175781 C 11.175781 18.3125 10.886719 18.410156 10.589844 18.472656 C 10.257812 18.546875 9.917969 18.582031 9.578125 18.582031 C 8.691406 18.582031 8.015625 18.339844 7.550781 17.855469 C 7.085938 17.367188 6.851562 16.667969 6.851562 15.75 C 6.851562 14.816406 7.089844 14.101562 7.570312 13.601562 C 8.050781 13.101562 8.738281 12.855469 9.636719 12.855469 C 10.242188 12.855469 10.78125 12.964844 11.253906 13.183594 L 11.253906 13.957031 C 10.691406 13.769531 10.175781 13.679688 9.703125 13.679688 C 9.074219 13.679688 8.605469 13.839844 8.300781 14.15625 C 7.996094 14.476562 7.84375 14.976562 7.84375 15.652344 L 7.84375 15.820312 C 7.84375 16.488281 7.996094 16.976562 8.296875 17.289062 C 8.597656 17.601562 9.070312 17.757812 9.714844 17.757812 M 9.714844 17.757812 "/>
</svg>

<svg role="img" viewBox="0 0 32 32" height="32" width="32" xmlns="http://www.w3.org/2000/svg"><path d="M6 26h20V6H6ZM30.668 8.668V7.332h-3.336v-2a.664.664 0 0 0-.664-.664h-2V1.332h-1.336v3.336h-2.664V1.332h-1.336v3.336h-2.664V1.332h-1.336v3.336h-2.664V1.332h-1.336v3.336H8.668V1.332H7.332v3.336h-2a.664.664 0 0 0-.664.664v2H1.332v1.336h3.336v2.664H1.332v1.336h3.336v2.664H1.332v1.336h3.336v2.664H1.332v1.336h3.336v2.664H1.332v1.336h3.336v2c0 .367.297.664.664.664h2v3.336h1.336v-3.336h2.664v3.336h1.336v-3.336h2.664v3.336h1.336v-3.336h2.664v3.336h1.336v-3.336h2.664v3.336h1.336v-3.336h2a.664.664 0 0 0 .664-.664v-2h3.336v-1.336h-3.336v-2.664h3.336v-1.336h-3.336v-2.664h3.336v-1.336h-3.336v-2.664h3.336v-1.336h-3.336V8.668Zm-6.695 9.816V15.79c0-.262-.055-.45-.16-.57-.106-.117-.278-.18-.512-.18-.352 0-.711.117-1.082.352v3.093h-.942v-4.07h.782l.097.45c.5-.38 1.024-.571 1.567-.571.39.004.687.105.89.309.203.207.305.503.305.89v2.992Zm-5.473-.656c.316 0 .621-.098.922-.3v-2.204a1.54 1.54 0 0 0-.906-.285c-.356 0-.621.113-.79.34-.167.226-.25.574-.25 1.043 0 .937.34 1.406 1.024 1.406m1.055.656-.094-.39c-.363.32-.781.48-1.258.48-.512 0-.922-.191-1.226-.57-.309-.383-.461-.899-.461-1.543 0-.426.07-.8.207-1.125.14-.328.34-.582.601-.766a1.58 1.58 0 0 1 .93-.277c.426 0 .812.14 1.168.418v-2.145h.941v5.918Zm-5.016-1.902v-2.441l-1.672 2.441Zm0 1.902v-1.148h-2.621v-.715l2.582-3.68h.992v3.641h.742v.754h-.742v1.148Zm-4.824-.726c.258 0 .508-.024.754-.07v-1.465H9.324v-.77h2.121v2.723c-.27.137-.558.234-.855.297a4.575 4.575 0 0 1-1.012.109c-.887 0-1.562-.242-2.027-.727-.465-.488-.7-1.187-.7-2.105 0-.934.239-1.648.72-2.148.48-.5 1.167-.747 2.066-.747.605 0 1.144.11 1.617.329v.773c-.563-.187-1.078-.277-1.55-.277-.63 0-1.099.16-1.403.476-.305.32-.457.82-.457 1.496v.168c0 .668.152 1.157.453 1.47.3.312.773.468 1.418.468m0 0" fill="rgb(83.137255%, 35.686275%, 2.745098%)" fill-rule="evenodd"/></svg>
